X:028
T:Steam-boat Hornpipe
M:4/4
L:1/8
K:G
(3def | g2 b>g d2 g>d | B>cd>B G2A>B | c2 e>c A2 c>A | F>GA>B c>de>f |
g2 b>g d2 g>d | B>cd>B G2 A>B | c>ed>c B>AG>F | A2 G2 G2 :|
B>c | d>Bd>B g2 g2 | e>ce>c a4 | f2f2 g2g2 | a>gf>e d2(3def |
g2 b>g d2 g>d | B>cd>B G2 A>B | c>ed>c B>AG>F | A2 G2 G2 :|
